X: 30
%%scale 0.7
T: The Sportsman's
R: hornpipe
M: 4/4
L: 1/8
K: Ador
|:A>B|"Am" c2c>A "G" B2B>A|G>AB>c d>BG>B|"Am" c2c>A "G" B2B>A|"Am" E2A2 A2A>B|
"Am" c2c>A "G" B2B>A|G>AB>c d>BG>B|"C" g>fg>e "G" d>BA>G|"Am"E2A2 A2:|
|:E2|"Am" A>Bc>d e>fg>e|"D" a>fd>f "E7" e>dc>B|"Am" A>Bc>d e>fg>e|"D" a>fd>f "E7" e2 (3efg|
"Am" a2a>f "G" g2g>e|"C" c2c>e "G" d>BG>B|"F" c>Bc>A "G" B>AB>G|"Am" E2A2 A2:|

